img/form/form-4-icon.svg

<svg width="191" height="185" viewBox="0 0 191 185" fill="none" xmlns="http://www.w3.org/2000/svg">
<path d="M54.1209 40.3506C77.866 40.3798 98.8271 55.3184 105.838 77.2088H117.785C119.543 77.2088 120.968 75.8336 120.968 74.1372V18.85C117.452 18.85 114.602 16.0997 114.602 12.707V6.56393C114.602 3.17123 117.452 0.420898 120.968 0.420898H184.632C188.148 0.420898 190.999 3.17123 190.999 6.56393V12.707C190.999 16.0997 188.148 18.85 184.632 18.85V166.283C188.148 166.283 190.999 169.033 190.999 172.426V178.569C190.999 181.961 188.148 184.712 184.632 184.712H120.968C117.452 184.712 114.602 181.961 114.602 178.569V172.426C114.602 169.033 117.452 166.283 120.968 166.283V110.995C120.968 109.299 119.543 107.924 117.785 107.924H105.838C97.6605 133.567 70.6735 149.056 43.4174 143.751C16.1613 138.446 -2.49256 114.073 0.270953 87.3767C3.03446 60.68 26.3158 40.3489 54.1209 40.3506V40.3506ZM184.632 6.56393H120.968V12.707H184.632V6.56393ZM120.968 178.569H184.632V172.426H120.968V178.569ZM117.785 101.781C123.059 101.781 127.335 105.906 127.335 110.995V166.283H178.266V18.85H127.335V74.1372C127.335 79.2263 123.059 83.3518 117.785 83.3518H107.341C108.534 89.4409 108.534 95.6917 107.341 101.781H117.785ZM54.1209 138.639C80.4915 138.639 101.869 118.012 101.869 92.5663C101.869 67.1211 80.4915 46.4936 54.1209 46.4936C27.7504 46.4936 6.37285 67.1211 6.37285 92.5663C6.40268 118 27.7628 138.61 54.1209 138.639Z" fill="#353542"/>
<path d="M54.1208 52.6367C76.9752 52.6367 95.5024 70.5138 95.5024 92.5664C95.5024 114.619 76.9752 132.496 54.1208 132.496C31.2663 132.496 12.7391 114.619 12.7391 92.5664C12.7654 70.5244 31.2772 52.6621 54.1208 52.6367ZM54.1208 126.353C73.4592 126.353 89.136 111.226 89.136 92.5664C89.136 73.9065 73.4592 58.7797 54.1208 58.7797C34.7824 58.7797 19.1055 73.9065 19.1055 92.5664C19.1283 111.217 34.7918 126.331 54.1208 126.353Z" fill="#353542"/>
<path d="M50.9377 83.9174V71.0661C50.9377 69.3698 52.3629 67.9946 54.121 67.9946C55.879 67.9946 57.3042 69.3698 57.3042 71.0661V83.9174C61.1181 85.1994 63.6736 88.6697 63.6736 92.5667C63.6736 96.4637 61.1181 99.934 57.3042 101.216V107.924C57.3042 109.621 55.879 110.996 54.121 110.996C52.3629 110.996 50.9377 109.621 50.9377 107.924V101.216C47.1238 99.934 44.5683 96.4637 44.5683 92.5667C44.5683 88.6697 47.1238 85.1994 50.9377 83.9174V83.9174ZM54.121 95.6383C55.879 95.6383 57.3042 94.2631 57.3042 92.5667C57.3042 90.8704 55.879 89.4952 54.121 89.4952C52.3629 89.4952 50.9377 90.8704 50.9377 92.5667C50.9377 94.2631 52.3629 95.6383 54.121 95.6383Z" fill="#353542"/>
<path d="M168.716 24.9932C170.474 24.9932 171.899 26.3683 171.899 28.0647V34.2077C171.899 35.9041 170.474 37.2792 168.716 37.2792C166.958 37.2792 165.533 35.9041 165.533 34.2077V28.0647C165.533 26.3683 166.958 24.9932 168.716 24.9932Z" fill="#353542"/>
<path d="M168.716 43.4224C170.474 43.4224 171.899 44.7975 171.899 46.4939V74.1375C171.899 75.8339 170.474 77.209 168.716 77.209C166.958 77.209 165.533 75.8339 165.533 74.1375V46.4939C165.533 44.7975 166.958 43.4224 168.716 43.4224Z" fill="#353542"/>
</svg>

<svg width="191" height="185" fill="none" xmlns="http://www.w3.org/2000/svg"><path d="M54.12 40.35c23.746.03 44.707 14.968 51.718 36.859h11.947c1.758 0 3.183-1.375 3.183-3.072V18.85c-3.516 0-6.366-2.75-6.366-6.143V6.564c0-3.393 2.85-6.143 6.366-6.143h63.664c3.516 0 6.367 2.75 6.367 6.143v6.143c0 3.393-2.851 6.143-6.367 6.143v147.433c3.516 0 6.367 2.75 6.367 6.143v6.143c0 3.392-2.851 6.143-6.367 6.143h-63.664c-3.516 0-6.366-2.751-6.366-6.143v-6.143c0-3.393 2.85-6.143 6.366-6.143v-55.288c0-1.696-1.425-3.071-3.183-3.071h-11.947c-8.177 25.643-35.164 41.132-62.42 35.827C16.16 138.446-2.493 114.073.27 87.377 3.034 60.68 26.316 40.349 54.121 40.35zM184.633 6.565h-63.664v6.143h63.664V6.564zm-63.664 172.005h63.664v-6.143h-63.664v6.143zm-3.183-76.788c5.274 0 9.55 4.125 9.55 9.214v55.288h50.931V18.85h-50.931v55.287c0 5.09-4.276 9.215-9.55 9.215h-10.444a47.896 47.896 0 0 1 0 18.429h10.444zm-63.664 36.858c26.37 0 47.748-20.627 47.748-46.073 0-25.445-21.377-46.072-47.748-46.072-26.37 0-47.748 20.627-47.748 46.072.03 25.434 21.39 46.044 47.748 46.073z" fill="#353542"/><path d="M54.12 52.637c22.855 0 41.382 17.877 41.382 39.93 0 22.052-18.527 39.929-41.381 39.929-22.855 0-41.382-17.877-41.382-39.93.026-22.042 18.538-39.904 41.382-39.93zm0 73.716c19.34 0 35.016-15.127 35.016-33.787 0-18.66-15.677-33.786-35.015-33.786-19.339 0-35.016 15.126-35.016 33.786.023 18.651 15.687 33.765 35.016 33.787z" fill="#353542"/><path d="M50.938 83.917v-12.85c0-1.697 1.425-3.072 3.183-3.072 1.758 0 3.183 1.375 3.183 3.071v12.851c3.814 1.282 6.37 4.753 6.37 8.65 0 3.897-2.556 7.367-6.37 8.649v6.708c0 1.697-1.425 3.072-3.183 3.072-1.758 0-3.183-1.375-3.183-3.072v-6.708c-3.814-1.282-6.37-4.752-6.37-8.65 0-3.896 2.556-7.367 6.37-8.649zm3.183 11.721c1.758 0 3.183-1.375 3.183-3.071 0-1.697-1.425-3.072-3.183-3.072-1.758 0-3.183 1.375-3.183 3.072 0 1.696 1.425 3.071 3.183 3.071zM168.716 24.993c1.758 0 3.183 1.375 3.183 3.072v6.143c0 1.696-1.425 3.071-3.183 3.071-1.758 0-3.183-1.375-3.183-3.071v-6.143c0-1.697 1.425-3.072 3.183-3.072zM168.716 43.422c1.758 0 3.183 1.376 3.183 3.072v27.644c0 1.696-1.425 3.071-3.183 3.071-1.758 0-3.183-1.375-3.183-3.072V46.495c0-1.697 1.425-3.072 3.183-3.072z" fill="#353542"/></svg>
